resources/svg/major-featured-content.svg

<svg xmlns="http://www.w3.org/2000/svg" viewBox="0 0 20 20" fill="currentColor"><path fill-rule="evenodd" d="m16.56 4.56-4.12-4.12a1.5 1.5 0 0 0-1.06-.44h-6.88a1.5 1.5 0 0 0-1.5 1.5v17a1.5 1.5 0 0 0 1.5 1.5h10.5a2 2 0 0 0 2-2v-12.38a1.5 1.5 0 0 0-.44-1.06zm-8.16 2.44c-1 0-1.9.9-1.9 2 0 2.2 1.3 3.9 3.5 5 2.2-1.1 3.5-2.8 3.5-4.9v-.2c0-1-.9-1.9-1.9-1.9-1 0-1.6 1.167-1.6 1.167s-.6-1.167-1.6-1.167z"/></svg>

<svg xmlns="http://www.w3.org/2000/svg" viewBox="0 0 20 20" fill="currentColor"><path fill-rule="evenodd" d="M16.56 4.56L12.44.44A1.5 1.5 0 0011.38 0H4.5A1.5 1.5 0 003 1.5v17A1.5 1.5 0 004.5 20H15a2 2 0 002-2V5.62a1.5 1.5 0 00-.44-1.06zM8.4 7c-1 0-1.9.9-1.9 2 0 2.2 1.3 3.9 3.5 5 2.2-1.1 3.5-2.8 3.5-4.9v-.2c0-1-.9-1.9-1.9-1.9-1 0-1.6 1.167-1.6 1.167S9.4 7 8.4 7z" fill="#5C5F62"/></svg>
